X:1
T:Title
%%score { ( 1 3 ) | ( 2 4 ) }
L:1/8
Q:1/4=100
M:4/4
K:Ab
V:1 treble nm="Grand Piano"
V:3 treble 
V:2 bass 
V:4 bass 
V:1
 F2 F2 [FA]2 [FA]2 | [=EB]4 [FA]4 | [Fd]2 [A,FA]2 [B,E_G]2 [B,DF]2 | [DF]4 [A,CE]2 z2 | %4
w: Adam~Geibel * * *||||
 [A,DF]2 [A,DF]2 [A,EA]2 [A,EA]2 | d4 z4 | [EFc]2 [DFB]2 [CEA]2 [B,EG]2 | [CEA]6 z2 | %8
w: ||||
 [CE_G]2 [CEA]2 [EGB]2 [EGc]2 | [DFB]4 [DFA]4 | [B,EG]2 [CEA]2 [DGB]2 [Gf]2 | e8 | %12
w: ||||
 [Ad]2 [Af]2 [Ae]2 [Ad]2 | [Ac]4 B4 | A2 F2 [CE]2 [C_G]2 | [DF]6 z2 |] %16
w: ||||
V:2
 [D,A,D]2 [D,A,D]2 [D,D]2 [D,A,]2 | [D,G,]4 [D,A,]4 | [D,A,]2 F,2 _G,2 =G,2 | A,4 A,,2 z2 | %4
 D,2 D,2 C,2 C,2 | F,2 z2 [C,A,]4 | D,2 D,2 E,2 E,2 | A,,6 z2 | A,2 A,2 A,2 A,2 | D,4 D,4 | %10
 E,2 E,2 E,2 [E,D]2 | [CA]8 | [F,D]2 [D,D]2 [E,C]2 [F,D]2 | [_G,D]4[K:treble] [G,D_G]4 | %14
 [A,DF]2[K:bass] [A,D]2 [A,,A,]2 [A,,A,]2 | [D,A,]6 z2 |] %16
V:3
 x8 | x8 | x8 | x8 | x8 | D2 [G,E]2 [Ec]4 | x8 | x8 | x8 | x8 | x8 | z4 _G,4 | x8 | x8 | x8 | x8 |] %16
V:4
 x8 | x8 | x8 | x8 | x8 | B,,4 z4 | x8 | x8 | x8 | x8 | x8 | A,4 z4 | x8 | x4[K:treble] x4 | %14
 x2[K:bass] x6 | x8 |] %16

